svgs/sharp-solid/arrows-to-circle.svg

<svg xmlns="http://www.w3.org/2000/svg" viewBox="0 0 640 512"><!--! Font Awesome Pro 6.6.0 by @fontawesome - https://fontawesome.com License - https://fontawesome.com/license (Commercial License) Copyright 2024 Fonticons, Inc. --><path d="M48 2.7L70.6 25.4 160 114.7 160 96l0-32 64 0 0 32 0 96 0 32-32 0-96 0-32 0 0-64 32 0 18.7 0L25.4 70.6 2.7 48 48 2.7zM256 256a64 64 0 1 1 128 0 64 64 0 1 1 -128 0zM96 288l96 0 32 0 0 32 0 96 0 32-64 0 0-32 0-18.7L70.6 486.6 48 509.3 2.7 464l22.6-22.6L114.7 352 96 352l-32 0 0-64 32 0zM637.3 48L614.6 70.6 525.3 160l18.7 0 32 0 0 64-32 0-96 0-32 0 0-32 0-96 0-32 64 0 0 32 0 18.7 89.4-89.4L592 2.7 637.3 48zM448 288l96 0 32 0 0 64-32 0-18.7 0 89.4 89.4L637.3 464 592 509.3l-22.6-22.6L480 397.3l0 18.7 0 32-64 0 0-32 0-96 0-32 32 0z"/></svg>

<svg xmlns="http://www.w3.org/2000/svg" viewBox="0 0 640 512"><!--! Font Awesome Pro 6.5.2 by @fontawesome - https://fontawesome.com License - https://fontawesome.com/license (Commercial License) Copyright 2024 Fonticons, Inc. --><path d="M48 2.7L70.6 25.4 160 114.7V96 64h64V96v96 32H192 96 64V160H96h18.7L25.4 70.6 2.7 48 48 2.7zM256 256a64 64 0 1 1 128 0 64 64 0 1 1 -128 0zM96 288h96 32v32 96 32H160V416 397.3L70.6 486.6 48 509.3 2.7 464l22.6-22.6L114.7 352H96 64V288H96zM637.3 48L614.6 70.6 525.3 160H544h32v64H544 448 416V192 96 64h64V96v18.7l89.4-89.4L592 2.7 637.3 48zM448 288h96 32v64H544 525.3l89.4 89.4L637.3 464 592 509.3l-22.6-22.6L480 397.3V416v32H416V416 320 288h32z"/></svg>
